information-slab-box-outline.svg

<svg fill="currentColor" viewBox="0 0 24 24"><path d="M11 9h2V7h-2zm3 8v-2h-1v-4h-3v2h1v2h-1v2zM5 3h14a2 2 0 0 1 2 2v14c0 .53-.21 1.04-.59 1.41-.37.38-.88.59-1.41.59H5c-.53 0-1.04-.21-1.41-.59C3.21 20.04 3 19.53 3 19V5c0-1.11.89-2 2-2m14 16V5H5v14z"/></svg>

<svg  viewBox="0 0 24 24" fill="currentColor"><path  d="M11 9H13V7H11V9M14 17V15H13V11H10V13H11V15H10V17H14M5 3H19C20.1 3 21 3.89 21 5V19C21 19.53 20.79 20.04 20.41 20.41C20.04 20.79 19.53 21 19 21H5C4.47 21 3.96 20.79 3.59 20.41C3.21 20.04 3 19.53 3 19V5C3 3.89 3.89 3 5 3M19 19V5H5V19H19Z"/></svg>
